X:2298
T:Polska
T:(FMK M 50 bild 10)
T:efter Mårten Persson
O:Glemminge, Skåne
B:Folkmusikkommissionen
Z:Åke Persson 2012-02-29
R:Polska
M:3/4
L:1/8
Q:108
%%printtempo 0
%%MIDI ratio 2 1
K:G
|: DGBcAB | cB/A/ G2 B2 | Bdgeec |1 cd B4 :|2 cd B3 G |]
|: Bd g2 e2 | cc B2 GB | dd/c/ ADFA |1 cB G3 G :|2 cB G4 |]
(:musicend:)


(:music:)
